X: 202
T: VARIOUS: Wren [An Dro]
C: C: Trad.; S: Various
C: Set Leaders: Vova, Andrey
Z: Anton Zille ed., Oleg Naumov arr.; bravesentry at The Session
N: https://thesession.org/members/26966/sets/96722
R: An Dro
M: 4/4
L: 1/8
Q: 1/2=100
K: Emin
|:"Em"E2 B2 B2AB|"Am"c3B AGFG|"D"A2 F2 B2 AG|"Bm"FE F2 G2 F2|
"Em"E2 B2 B2 AB|"Am"c3B AGFG|"D"A2 F2 B2 AG|"Bm"FEFG E3D:||
|:"Em"E2 E2 F2 GF|"C"E2 E2 F3G|"D"A2 F2 B2 AG|"Bm"FE F2 G2 F2|
"Em"E2 E2 F2 GF|"C"E2 E2 F2 G2|"D"A2 F2 B2 AG|"D"FEFG E3D:||

